X: 37
T:Donegal Reel
S: Dervish Boys of Sligo
M:C
L:1/8
K:D
D2 FD A,DFD| E2 GE B,EGE| D2 dA BAGF| GEFD EGFE|
D2 FD A,DFD| E2 GE B,EGE| D2 dA BAFD| EDCE D4 :|
~B3 A B3 c| dBBA B3 d| cA (3AAA  fAeA| ABce ~f2 ec|
~B3 A B3 c| dBBA B3 c| dBcA BAFA|1 Bcde f2 ec :|2(3Bcd DE FE D2||
